X: 10691
T: 4. THE WIND THAT SHAKES THE BARLEY -- Reel
R: reel
N: #4 of Six Strathspeys and Reels arranged by W.B. Laybourn
B: K\"ohler's Violin Repository, v.1, 1885 p.69 #1
F: http://www.archive.org/details/klersviolinrepos01edin
Z: 2012 John Chambers <jc:trillian.mit.edu>
N: Added missing dot to D in bar 14.  Broke some long beams for readability.
M: C|
L: 1/8
K: D
|:\
vA2AB (AF)DF | B2BA (Bc)dB | A2AB (AF)Df | (gf)ed (Bc)d[eB] :|
vf2fd g2ge | f2fd (Bc)de | f2fd g2ge | (af)ed (Bc)de |
f2fd g2ge | f2fd (Bc)de | (fe)fd (gf)ge | (af)ed (Bc)d"^Fine."B |]

%%sep 2 1 500

